src/assets/img/svgs/isolated-bus.svg

<?xml version="1.0" encoding="UTF-8"?>
<svg width="256px" height="256px" viewBox="0 0 256 256" version="1.1" xmlns="http://www.w3.org/2000/svg" xmlns:xlink="http://www.w3.org/1999/xlink">
    <!-- Generator: Sketch 58 (84663) - https://sketch.com -->
    <title>Icon / Modes / Isolated / Bus</title>
    <desc>Created with Sketch.</desc>
    <g id="Icon-/-Modes-/-Isolated-/-Bus" stroke="none" stroke-width="1" fill="none" fill-rule="evenodd">
        <path d="M75.6451214,113.449395 L181.354873,113.449395 C185.494531,113.445168 188.90466,116.838164 188.900423,120.975757 L188.900423,158.62024 C188.900423,162.766295 185.494531,166.163521 181.34639,166.159295 L75.6323971,166.159295 C71.5054626,166.163521 68.0953338,162.778987 68.1122996,158.637163 L68.0953338,120.971526 C68.0953338,116.838164 71.4969797,113.449395 75.6451214,113.449395 Z M158.688544,93.8656368 C158.684302,96.3490389 156.652646,98.3797595 154.171396,98.3797595 L102.815874,98.3670675 C100.351589,98.3797595 98.3029672,96.3490389 98.3156916,93.8656368 L98.3029672,87.8284736 C98.3029672,85.3408409 100.334624,83.3228123 102.815874,83.3228123 L154.179879,83.3228123 C156.661129,83.3228123 158.688544,85.3619942 158.684302,87.8284736 L158.688544,93.8656368 Z M68.0953338,30.6086895 C68.1122996,26.462635 71.4927382,23.0654086 75.6620873,23.0738699 L181.354873,23.0654086 C185.507256,23.0654086 188.900419,26.475327 188.90466,30.6086895 L188.900419,60.7310454 C188.90466,64.8686386 185.507256,68.253173 181.354873,68.2700957 L75.6536043,68.2700957 C71.4800139,68.253173 68.1080582,64.8601773 68.0953338,60.7310454 L68.0953338,30.6086895 Z M188.90466,192.545967 C188.896177,198.752357 183.814916,203.812236 177.558772,203.816466 C171.3408,203.812236 166.242562,198.769279 166.242562,192.533275 C166.23409,186.309962 171.3408,181.220469 177.567254,181.220469 C183.802191,181.22893 188.90466,186.314193 188.90466,192.545967 Z M79.4327396,203.795379 C73.1808368,203.795379 68.1080344,198.769279 68.1080344,192.537505 C68.0953338,186.314193 73.1850783,181.22893 79.4115323,181.22893 C85.6591937,181.22893 90.7446967,186.314193 90.7574211,192.533275 C90.7574211,198.769279 85.6591937,203.816466 79.4327396,203.795379 Z M68.0868509,226.412464 L68.0910924,226.408233 L68.1080582,244.477416 C68.1080582,246.965049 70.1227487,248.991539 72.6252064,248.991539 L86.2148241,249 C88.7130404,248.991539 90.7531796,246.960818 90.7574211,244.498569 L90.7446967,226.412464 L113.389818,226.425156 C121.707309,226.412464 135.288444,226.408233 143.588969,226.412464 L166.238332,226.412464 L166.238332,244.481647 C166.238332,246.960818 168.291195,248.991539 170.78517,248.987308 L184.366305,248.991539 C186.877245,249 188.90466,246.97351 188.900419,244.481647 L188.90466,226.425156 C197.205185,226.412464 203.991511,219.622242 203.995753,211.351286 L204,23.0781006 C204.004236,14.7859914 197.205185,8.02961468 188.90466,8.012692 L143.656832,8 C135.369031,8.00846134 121.775172,8.012692 113.461923,8.00846134 L68.1080582,8.00846134 C59.7778431,8.012692 53.0084829,14.7859914 53.0042415,23.0781006 L53,211.351286 C53.0042415,219.61378 59.786326,226.412464 68.0868509,226.412464 L68.0868509,226.412464 Z" id="Fill-1" fill="#42194F"></path>
    </g>
</svg>

<svg width="256" height="256" xmlns="http://www.w3.org/2000/svg"><path d="M75.645 113.45h105.71c4.14-.005 7.55 3.388 7.545 7.526v37.644c0 4.146-3.405 7.544-7.554 7.54H75.632c-4.127.004-7.537-3.381-7.52-7.523l-.017-37.665c0-4.134 3.402-7.523 7.55-7.523zm83.044-19.584c-.005 2.483-2.036 4.514-4.518 4.514l-51.355-.013c-2.464.013-4.513-2.018-4.5-4.501l-.013-6.038c0-2.487 2.032-4.505 4.513-4.505h51.364c2.481 0 4.509 2.039 4.504 4.505l.005 6.038zM68.095 30.609c.017-4.146 3.398-7.544 7.567-7.535l105.693-.009c4.152 0 7.545 3.41 7.55 7.544L188.9 60.73c.005 4.138-3.393 7.522-7.545 7.54H75.654c-4.174-.018-7.546-3.41-7.559-7.54V30.609zm120.81 161.937c-.009 6.206-5.09 11.266-11.346 11.27-6.218-.004-11.316-5.047-11.316-11.283-.009-6.223 5.098-11.313 11.324-11.313 6.235.009 11.338 5.094 11.338 11.326zm-109.472 11.25c-6.252 0-11.325-5.027-11.325-11.258-.013-6.224 5.077-11.31 11.304-11.31 6.247 0 11.333 5.086 11.345 11.305 0 6.236-5.098 11.283-11.324 11.262zm-11.346 22.616l.004-.004.017 18.07a4.514 4.514 0 004.517 4.514l13.59.008c2.498-.008 4.538-2.04 4.542-4.501l-.012-18.087 22.645.013c8.317-.013 21.898-.017 30.199-.013h22.65v18.07c0 2.479 2.052 4.51 4.546 4.505l13.581.005a4.509 4.509 0 004.534-4.51l.005-18.057c8.3-.013 15.087-6.803 15.09-15.074L204 23.078c.004-8.292-6.795-15.048-15.095-15.065L143.657 8c-8.288.008-21.882.013-30.195.008H68.108c-8.33.005-15.1 6.778-15.104 15.07L53 211.351c.004 8.263 6.786 15.061 15.087 15.061z" fill="#42194F" fill-rule="evenodd"/></svg>
